X: 9
T:Bourre du JO (C. Oller)
C:Trad 1, 52
M:3/8
L:1/16
K:C
g2|:fedefa|g2fedc|Bcdedf|e2c2g2|\
fedefa|g2fedc|BcdedB|1 c2G2g2:|2 c4G2||
|:AGAGAG|gGfGdG|BGdGdf|e2c2G2|\
AGAGAG|gGfGdG|BGdedB|1 c4G2:|2 c6||
